X:1
T: The Highlandman's Umbrella
C:
R:Reel
Q: 232
Z:Bruce Shawyer
K:D
M:4/4
L:1/8
A2 |\
F2 FE D2 DB, | A,B, DE F2 AA | B2 dd F2 D2 | F2 E2 E2 AG |\
F2 FE D2 EF | GA Bc d2 B2 | A3d f2 d2 |[1 A4 F2 AG :|[2 A4 F2 fg |
a2 aa f2 d2  | b2 bb g2 e2 | a2 aa d2 f2 | f2 e2 e2 aa |\
ba gf gf ed | ed cB A2 Bc | de fg a2 f2 |[1 A4 F2 fg :|[2 A4 F2 |]
